!!!!SEGMENT: pl-kk--kk-i-2--046-003_anonim--officium-a-4-voci-paschale-credo.krn
!!!cenid: 16xx:1720
!!!COM: Anonim
!!!COM-rismID: pe30004985
!!!CDT:
!!!CNT:
!!!OPR: Officium A 4 Voci Paschale
!!!OTL: Credo
!!!OMV: 003
!!!PDT:
!!!AGN: Sacred; Mass
!!!SMS-siglum: PL-Kk
!!!SMS-shelfmark: Kk.I.2
!!!SMS-shelfwork: 046-003 M
!!!NIFC-rismSourceID: 300258064
!!!NIFC-islandoraID: pl-kk:750
!!!URL-pdf-islandora: https://repozytorium.nifc.pl/islandora/object/pl-kk%3A750/datastream/PDF/view
!!!URL-scan: https://polish.musicsources.pl/pl/lokalizacje/galeria/rekopisy/5828 @EN{Scan on Polish Music Sources Website} @PL{Skany w portalu Dziedzictwo Muzyki Polskiej w otwartym dostępie}
!!!ONB-nifc: Części mszy: Kyrie, Gloria, Credo, Sanctus, Agnus Dei; skany: C: 0077-0079; A: 0180-0183; T: 0280-0282; B: 0380-0383;
!!!AIN: 1 alto 1 bass 1 soprn 1 tenor
!!!key:
**kern	**text	**kern	**text	**kern	**text	**kern	**text
*part4	*part4	*part3	*part3	*part2	*part2	*part1	*part1
*staff4	*staff4	*staff3	*staff3	*staff2	*staff2	*staff1	*staff1
*I"BASVS	*	*I"TENOR	*	*I"ALTVS	*	*I"DISCANTVS	*
*I'B	*	*I'T	*	*I'A	*	*I'S	*
*Ibass	*	*Itenor	*	*Ialto	*	*Isoprn	*
*ICvox	*	*ICvox	*	*ICvox	*	*ICvox	*
*clefF4	*	*clefC4	*	*clefC3	*	*clefC2	*
*k[]	*	*k[]	*	*k[]	*	*k[]	*
*a:	*	*a:	*	*a:	*	*a:	*
*M2/1	*	*M2/1	*	*M2/1	*	*M2/1	*
*met(C)	*	*met(C)	*	*met(C)	*	*met(C)	*
*all\right	*	*all\right	*	*all\right	*	*all\right	*
=1-	=1-	=1-	=1-	=1-	=1-	=1-	=1-
*	*	*	*	*lig	*	*	*
00r	.	0r	.	1B	Pa-	1r	.
*	*	*	*	*	*	*lig	*
.	.	.	.	1c	.	1e	Pa-
*	*	*	*	*Xlig	*	*	*
=2-	=2-	=2-	=2-	=2-	=2-	=2-	=2-
.	.	1r	.	1A	-trem	1f	.
*	*	*lig	*	*lig	*ij	*Xlig	*
.	.	1B	Pa-	1d	Pa-	1d	-trem
=3-	=3-	=3-	=3-	=3-	=3-	=3-	=3-
*lig	*	*	*	*	*	*lig	*
1E	Pa-	1c	.	1e	.	1g	pa-
*	*	*Xlig	*	*Xlig	*	*	*
1F	.	1A	-trem	1c	-trem	1a	.
*Xlig	*	*	*	*	*Xij	*Xlig	*
=4-	=4-	=4-	=4-	=4-	=4-	=4-	=4-
*	*	*lig	*	*2\right	*	*	*
1D	-trem	1d	pa-	2d\	om-	1b	-trem
.	.	.	.	2.g\	-ni-	.	.
*lig	*	*	*	*	*	*2\right	*
1G	pa-	1e	.	.	.	2g\	om-
.	.	.	.	4f\	.	.	.
.	.	.	.	4e\	.	2.cc\	-ni-
.	.	.	.	8d\L	.	.	.
.	.	.	.	8c\J	.	.	.
*	*	*Xlig	*	*	*	*	*
=5-	=5-	=5-	=5-	=5-	=5-	=5-	=5-
1A	.	1c	-trem	1f	-po-	.	.
.	.	.	.	.	.	4b\	-po-
.	.	.	.	.	.	2.a\	-ten-
*Xlig	*	*	*	*	*	*	*
1F	-trem	1d	om-	2f\	-ten-	.	.
.	.	.	.	.	.	4g\	.
.	.	.	.	2d\	-tem	2f\	.
=6-	=6-	=6-	=6-	=6-	=6-	=6-	=6-
1E	om-	1B	-ni-	1G	.	1g	.
*2\right	*	*	*	*	*	*	*
2A\	-ni-	1.A	-po-	1c	Pa-	2.e/	-tem
2E\	-po-	.	.	.	.	.	.
.	.	.	.	.	.	4a\	Pa-
=7-	=7-	=7-	=7-	=7-	=7-	=7-	=7-
2.D/	-ten-	.	.	1d	.	1b	.
.	.	2D/	-ten-	.	.	.	.
4C/	.	.	.	.	.	.	.
4BB/	.	0D	-tem	1B	-trem	0g	-trem
4AA/	.	.	.	.	.	.	.
2GG/	-tem	.	.	.	.	.	.
=8-	=8-	=8-	=8-	=8-	=8-	=8-	=8-
*lig	*	*	*	*	*	*	*
*	*	*	*	*custos:c	*	*	*
1BB	Pa-	.	.	0r	.	.	.
*	*	*	*	*	*	*lig	*
1C	.	1r	.	.	.	1e	Pa-
*Xlig	*	*	*	*	*	*	*
=9-	=9-	=9-	=9-	=9-	=9-	=9-	=9-
*	*	*lig	*	*lig	*	*	*
*	*	*	*	*	*	*custos:d	*
!	!	!	!	!LO:PB:g=original	!	!	!
1AA	-trem	1A	pa-	1c	pa-	1f	.
*lig	*	*	*	*	*	*Xlig	*
!	!	!	!	!	!	!LO:LB:g=original	!
1D	om-	1B	.	1d	.	1d	-trem
*	*	*Xlig	*	*Xlig	*	*	*
=10-	=10-	=10-	=10-	=10-	=10-	=10-	=10-
1E	.	2G/	-trem	1B	-trem	2.g\	om-
.	.	1G	om-	.	.	.	.
.	.	.	.	.	.	4f\	-ni-
*Xlig	*	*	*	*	*	*	*
2C/	-ni-	.	.	2c/	om-	2e/	-po-
2F\	-po-	4D/	-ni-	4B/	-ni-	1d/	.
.	.	4D/	-po-	4A/	-po-	.	.
=11-	=11-	=11-	=11-	=11-	=11-	=11-	=11-
*custos:AA	*	*custos:E	*	*	*	*	*
0E	-ten-	0E	-ten-	2G#y/	-ten-	.	.
.	.	.	.	1A	.	2c/	.
.	.	.	.	.	.	2B/	-ten-
.	.	.	.	2G#X/	.	2e/	.
!LO:LB:g=original	!	!LO:PB:g=original	!	!	!	!	!
=12-	=12-	=12-	=12-	=12-	=12-	=12-	=12-
2AA/	-tem	2E/	-tem	2A/	-tem	2c/	-tem
2E\	fa-	2E/	fa-	2r	.	2e/	fa-
*	*	*2\right	*	*	*	*	*
2E\	-cto-	2B\	-cto-	2r	.	2e/	-cto-
2E\	-rem	2B\	-rem	2e\	fa-	2b\	-rem
=13-	=13-	=13-	=13-	=13-	=13-	=13-	=13-
*	*	*lig	*	*	*	*	*
4AA/	cae-	1c	cae-	2e\	-cto-	2a\	cae-
4BB/	.	.	.	.	.	.	.
4C/	.	.	.	2e\	-rem	4e/	.
4D/	.	.	.	.	.	4f\	.
1E	.	1B	.	2.e\	cae-	4g\	.
.	.	.	.	.	.	4a\	.
.	.	.	.	.	.	4b\	.
.	.	.	.	4d\	.	4g\	.
*	*	*Xlig	*	*	*	*	*
=14-	=14-	=14-	=14-	=14-	=14-	=14-	=14-
1.F	-li	2A/	-li	2c/	.	1a	.
.	.	1D	et	1d	.	.	.
.	.	.	.	.	.	2f\	-li
2E\	et	2E/	.	2c/	-li	2g\	et
=15-	=15-	=15-	=15-	=15-	=15-	=15-	=15-
*	*	*	*	*	*	*lig	*
2D/	ter-	4F/	ter-	1A	et	1a	ter-
.	.	4G/	.	.	.	.	.
2C/	.	1A	.	.	.	.	.
1BB	.	.	.	1B	ter-	1d	.
.	.	2G#y/	.	.	.	.	.
*	*	*	*	*	*	*Xlig	*
=16-	=16-	=16-	=16-	=16-	=16-	=16-	=16-
*	*	*	*	*	*	*custos:a	*
1AA	-rae	1A	-rae	1e	-rae	1c	-rae
!	!	!	!	!	!	!LO:LB:g=original	!
2AA/	vi-	2c\	vi-	2e\	vi-	2a\	vi-
*	*	*	*	*custos:e	*	*	*
2AA/	-ſi-	2A/	-ſi-	2e\	-ſi-	2a\	-ſi-
!	!	!	!	!LO:LB:g=original	!	!	!
=17-	=17-	=17-	=17-	=17-	=17-	=17-	=17-
2.E\	-bi-	2B\	-bi-	2e\	-bi-	2g#X\	-bi-
.	.	4B\	-li-	4e\	-li-	4g#\	-li-
4E\	-li-	4B\	-um	2e\	-um	4g#\	-um
1E	-um	2.B\	om-	.	.	2.b\	om-
.	.	.	.	2e\	om-	.	.
.	.	4c\	-ni-	4e\	-ni-	4b\	-ni-
=18-	=18-	=18-	=18-	=18-	=18-	=18-	=18-
2.AA/	om-	2c\	-um	2e\	-um	1a	-um
.	.	2.c\	et	1e	et	.	.
4AA/	-ni-	.	.	.	.	.	.
2AA/	-um	.	.	.	.	2.a\	et
*	*	*custos:A	*	*	*	*	*
.	.	4B\	in-	.	.	.	.
!	!	!LO:LB:g=original	!	!	!	!	!
4AA/	et	4A/	-vi-	2e\	in-	.	.
4BB/	in-	8Gny/L	.	.	.	4a\	in-
.	.	8F/J	.	.	.	.	.
=19-	=19-	=19-	=19-	=19-	=19-	=19-	=19-
2C/	-vi-	2.E/	.	1.e	-vi-	2a\	-vi-
*custos:E	*	*	*	*	*	*	*
2AA/	-[ſi]-	.	.	.	.	2e/	-ſi-
.	.	4F#X/	.	.	.	.	.
!LO:PB:g=original	!	!	!	!	!	!	!
1.E	-bi-	2G#X/	.	.	.	2.e/	-bi-
.	.	2A/	-ſi-	2e\	-ſi-	.	.
.	.	.	.	.	.	4e/	-li-
=20-	=20-	=20-	=20-	=20-	=20-	=20-	=20-
.	.	2B\	-bi-	2.B/	-bi-	0e	-um
2E\	-li-	2E/	-li-	.	.	.	.
.	.	.	.	4B/	-li-	.	.
1AA	-um	1E	-um	1A	-um	.	.
=21-	=21-	=21-	=21-	=21-	=21-	=21-	=21-
1.AA	Et	1.c	Et	1.e	et	1.a	Et
2E\	in	2B\	in	2e\	in	2gny\	in
=22-	=22-	=22-	=22-	=22-	=22-	=22-	=22-
2F\	v-	2A/	v-	2c/	v-	2f\	v-
2C/	-num	1c	-num	2c/	-num	2e/	-num
2.F\	Do-	.	.	2.A/	Do-	2e/	Do-
.	.	1A/	Do-	.	.	2d/	-mi-
4F\	-mi-	.	.	4A/	-mi-	.	.
=23-	=23-	=23-	=23-	=23-	=23-	=23-	=23-
1E	-nu(m)	.	.	2B/	-num	1e	-num
*	*	*	*	*	*ij	*	*
.	.	2G#y/	-mi-	1e	et	.	.
*	*	*lig	*	*	*	*	*ij
2r	.	1A	-num	.	.	2.a\	Et
2AA/	et	.	.	2e\	in	.	.
*	*	*	*	*	*	*custos:g	*
.	.	.	.	.	.	4a\	in
!	!	!	!	!	!	!LO:LB:g=original	!
=24-	=24-	=24-	=24-	=24-	=24-	=24-	=24-
1E	in	1B	.	2e\	v-	2g\	v-
*	*	*	*	*custos:c	*	*	*
.	.	.	.	2e\	-num	2g\	-num
*	*	*Xlig	*ij	*	*	*	*
!	!	!	!	!LO:LB:g=original	!	!	!
1F	v-	1.A	Et	2c/	Do-	2.a\	Do-
.	.	.	.	2d\	-mi-	.	.
.	.	.	.	.	.	4b\	.
=25-	=25-	=25-	=25-	=25-	=25-	=25-	=25-
2E\	-num	.	.	0e	-num	2cc\	.
2E\	in	2G#y/	in	.	.	2b\	-mi-
2AA/	v-	2A/	v-	.	.	2a\	-num
*	*	*	*	*	*Xij	*lig	*Xij
2E\	-num	2G#/	-num	.	.	1b\	Je-
=26-	=26-	=26-	=26-	=26-	=26-	=26-	=26-
*lig	*	*	*	*	*	*	*
1F	Do-	1A	Do-	2c/	Je-	.	.
.	.	.	.	2d\	-ſum	1a	.
*col	*	*	*	*	*	*	*
2.E\	.	2c\	-mi-	2.e\	Chri-	.	.
*Xlig	*	*	*	*	*	*Xlig	*
*	*	*custos:A	*	*	*	*	*
.	.	2B\	.	.	.	2g#y\	-ſum
4E\	-mi-	.	.	4d\	.	.	.
*Xcol	*	*	*	*	*	*	*
!	!	!LO:LB:g=original	!	!	!	!	!
=27-	=27-	=27-	=27-	=27-	=27-	=27-	=27-
2AA/	-num	4A/	.	4c/	.	2.a\	Chri-
.	.	4Gny/	.	4B/	.	.	.
1D	Je-	4Fny/	.	2.A/	.	.	.
.	.	4E/	.	.	.	4gny\	.
.	.	2D/	.	.	.	2f\	.
.	.	.	.	4B/	.	.	.
2C/	-ſum	2E,</	-num	2c/	.	2.e/	.
*	*	*	*Xij	*	*	*	*
=28-	=28-	=28-	=28-	=28-	=28-	=28-	=28-
*custos:GG	*	*	*	*	*	*	*
2BB-X/	Chri-	2F/	Je-	2d\	.	.	.
.	.	.	.	.	.	4d/	.
!LO:LB:g=original	!	!	!	!	!	!	!
2GG/	.	2G/	-ſum	2B-X/	.	1d	.
1AA	.	1E	Chri-	1A	.	.	.
.	.	.	.	.	.	2c#X/	.
=29-	=29-	=29-	=29-	=29-	=29-	=29-	=29-
2D/	-ſtum	2D/	-ſtum	2A/	-ſtum	2d/	-ſtum
2.D/	fi-	2.A/	fi-	2.d\	fi-	2.f\	fi-
4D/	-li-	4A/	-li-	4d\	-li-	4f\	-li-
2D/	-um	2A/	-um	2d\	-um	2f\	-um
=30-	=30-	=30-	=30-	=30-	=30-	=30-	=30-
2.AA/	De-	2A/	De-	2.c#X/	De-	2e/	De-
*	*	*	*	*	*	*custos:a	*
.	.	2A/	-i	.	.	2e/	-i
4BBny/	-i	.	.	4d\	-i	.	.
!	!	!	!	!	!	!LO:PB:g=original	!
2C#X/	v-	2A/	v-	2e\	v-	2a\	v-
*	*	*	*	*custos:d	*	*	*
2C#/	-ni-	2A/	-ni-	2e\	-ni-	2a\	-ni-
!	!	!	!	!LO:LB:g=original	!	!	!
=31-	=31-	=31-	=31-	=31-	=31-	=31-	=31-
1.D	-ge-	1.A	-ge-	1.d	-ge-	4a\	-ge-
.	.	.	.	.	.	4g\	.
.	.	.	.	.	.	4f#X\	.
.	.	.	.	.	.	4e/	.
.	.	.	.	.	.	2d/	.
2D/	-ni-	2d\	-ni-	2d\	-ni-	2a\	-ni-
=32-	=32-	=32-	=32-	=32-	=32-	=32-	=32-
1GG	-tum	1B	-tum	1d	-tum	1g	-tum
2.D/	Et	2.d\	et	2A/	et	2.a\	et
.	.	.	.	2A/	ex	.	.
4D/	ex	4d\	ex	.	.	4a\	ex
=33-	=33-	=33-	=33-	=33-	=33-	=33-	=33-
2D/	pa-	2A/	pa-	1F	Pa-	2d/	pa-
2D/	-tre	2A/	-tre	.	.	2d/	-tre
1D	na-	2.A/	na-	2D/	-tre	1fny	na-
.	.	.	.	2d\	na-	.	.
*	*	*custos:c	*	*	*	*	*
.	.	4B\	-tum	.	.	.	.
!	!	!LO:LB:g=original	!	!	!	!	!
=34-	=34-	=34-	=34-	=34-	=34-	=34-	=34-
2AA/	-tum	2c\	an-	2e\	-tum	1a	-tum
2D/	an-	2d\	-te	2f\	an-	.	.
2E\	-te	2B\	om-	2e\	-te	2g\	an-
2F\	om-	2A/	-ni-	1d\	om-	2f\	-te
=35-	=35-	=35-	=35-	=35-	=35-	=35-	=35-
2G\	-ni-	2B\	-a	.	.	2.e/	o-
*custos:D	*	*	*	*	*	*	*
2A\	-a	4c\	ſae-	2cny/	-ni-	.	.
.	.	4B\	.	.	.	8d/L	.
.	.	.	.	.	.	8e/J	.
*lig	*	*	*	*	*	*	*
!LO:LB:g=original	!	!	!	!	!	!	!
1D	ſae-	4A/	.	1d	-a	1f	.
.	.	4G/	.	.	.	.	.
.	.	4A/	.	.	.	.	.
.	.	4B\	.	.	.	.	.
=36-	=36-	=36-	=36-	=36-	=36-	=36-	=36-
1A	.	2c\	.	2.e\	ſae-	2e/	-mni-
*	*	*	*	*	*	*custos:d	*
.	.	2A/	-cu-	.	.	2cny/	-a
.	.	.	.	4f\	.	.	.
*Xlig	*	*	*	*	*	*lig	*
!	!	!	!	!	!	!LO:LB:g=original	!
2G\	.	2B\	-la	2g\	.	1d	ſae-
2F\	.	1d\	ſae-	2d\	.	.	.
=37-	=37-	=37-	=37-	=37-	=37-	=37-	=37-
*	*	*	*	*	*	*col	*
2.E\	.	.	.	2.e\	-cu-	2.g\	.
.	.	2c#X\	-cu-	.	.	.	.
*	*	*	*	*	*	*Xlig	*
4E\	-cu-	.	.	4e\	-la	4g\	-cu-
*	*	*	*	*	*	*Xcol	*
[1D	-la	0d	-la	1.A	.	2f#X\	-la
.	.	.	.	.	.	2f#\	De-
=38-	=38-	=38-	=38-	=38-	=38-	=38-	=38-
0D]	.	.	.	.	.	2a\	-um
.	.	.	.	2A/	De-	2a\	de
.	.	2r	.	2A/	-um	1d	De-
*	*	*	*	*custos:d	*	*	*
.	.	2A/	De-	2A/	de	.	.
!	!	!	!	!LO:LB:g=original	!	!	!
=39-	=39-	=39-	=39-	=39-	=39-	=39-	=39-
1D	De-	2A/	-um	1d	De-	2d/	-o
.	.	2A/	de	.	.	2c/	lu-
2D/	-um	1d	De-	2d\	-o	4B/	-men
.	.	.	.	.	.	4b\	de
2D/	de	.	.	2d\	lu-	4a\	lu-
.	.	.	.	.	.	4a\	-mi-
=40-	=40-	=40-	=40-	=40-	=40-	=40-	=40-
1G	De-	2d\	-o	2d\	-men	2.g\	-ne
.	.	2cny\	lu-	2d\	de	.	.
.	.	.	.	.	.	4g\	.
2G\	-o	2B\	-men	1g	lu-	1d	De-
2F\	lu-	2A/	de	.	.	.	.
=41-	=41-	=41-	=41-	=41-	=41-	=41-	=41-
2E\	-men	2G/	lu-	2g\	-mi-	2e/	-um
*	*	*custos:c	*	*	*	*	*
2D/	de	2A/	-mi-	2f\	-ne	2fny\	ve-
!	!	!LO:LB:g=original	!	!	!	!	!
2Cny/	lu-	2c\	-ne	(<2e\	de	2g\	.
2D/	-mi-	2A/	De-	2d\)	.	2f\	-rum
=42-	=42-	=42-	=42-	=42-	=42-	=42-	=42-
*	*	*	*	*	*	*custos:g	*
1C	-ne	1c	-um	2.e\	lu-	1g	de
.	.	.	.	4e\	-mi-	.	.
!	!	!	!	!	!	!LO:LB:g=original	!
2E\	De-	2.G/	ve-	2Bny/	-ne	2g\	De-
2C/	-um	.	.	2.c/	De-	1e\	-o
.	.	8F/L	.	.	.	.	.
.	.	8G/J	.	.	.	.	.
=43-	=43-	=43-	=43-	=43-	=43-	=43-	=43-
1F	ve-	1A	.	.	.	.	.
.	.	.	.	4B/	-um	.	.
.	.	.	.	2A/	ve-	2d/	ve-
2E\	-rum	1G#X	-rum	2B/	-rum	2e/	-ro
*custos:AA	*	*	*	*	*	*	*
2E\	de	.	.	2e\	de	2e/	de
!LO:LB:g=original	!	!	!	!	!	!	!
=44-	=44-	=44-	=44-	=44-	=44-	=44-	=44-
2AA/	De-	2A/	de	2e\	De-	2e/	De-
2GG/	-o	4B\	De-	2e\	-o	2e/	-o
.	.	4E/	-o	.	.	.	.
0AA	ve-	0E	ve-	2.e\	ve-	1a	ve-
.	.	.	.	4d\	.	.	.
=45-	=45-	=45-	=45-	=45-	=45-	=45-	=45-
.	.	.	.	4c/	.	2e/	-ro
.	.	.	.	4d\	.	.	.
.	.	.	.	2e\	.	1a	.
!	!	!	!	!LO:PB:g=original	!	!	!
0E	-ro	0E	-ro	0e	-ro	.	.
.	.	.	.	.	.	2g#X\	.
=46-	=46-	=46-	=46-	=46-	=46-	=46-	=46-
.	.	.	.	.	.	1g#y	.
1r	.	1D	ge-	1r	.	1r	.
=47-	=47-	=47-	=47-	=47-	=47-	=47-	=47-
1.E	ge-	1E	-ni-	1.B	ge-	2r	.
.	.	.	.	.	.	1e	ge-
.	.	1Gny	-tum	.	.	.	.
2E\	-ni-	.	.	2B/	-ni-	2e/	-ni-
=48-	=48-	=48-	=48-	=48-	=48-	=48-	=48-
2AA/	-tum	1A	non	2A/	-tum	2e/	-tum
2AA/	non	.	.	2c/	non	2a\	non
0D	fa-	2D/	fa-	0A	fa-	2f\	fa-
.	.	2E/	.	.	.	2e/	.
=49-	=49-	=49-	=49-	=49-	=49-	=49-	=49-
.	.	1F	.	.	.	1d	.
2AA/	-ctum	1E	-ctum	1A	-ctum	1c	-ctum
1E\	con-	.	.	.	.	.	.
=50-	=50-	=50-	=50-	=50-	=50-	=50-	=50-
*	*	*lig	*	*	*	*	*
.	.	1G	con-	2e\	con-	2B/	con-
*	*	*	*	*	*	*custos:e	*
2E\	-ſub-	.	.	2e\	-ſub-	2B/	-ſub-
!	!	!	!	!	!	!LO:LB:g=original	!
2.AA/	-ſstan-	1A	.	2.c/	-ſstan-	2.e/	-ſstan-
4BB/	-ti-	.	.	4d\	-ti-	4d/	-ti-
*	*	*Xlig	*	*	*	*	*
=51-	=51-	=51-	=51-	=51-	=51-	=51-	=51-
*	*	*lig	*	*	*	*	*
2C/	-a-	1A	-ſub-	2e\	-a-	2c/	-a-
2D/	-lem	.	.	2f\	-lem	2f\	-lem
*	*	*custos:c	*	*	*	*	*
2.E\	pa-	1G	.	2.e\	pa-	2.gny\	pa-
4D/	.	.	.	4f\	.	4f\	.
*	*	*Xlig	*	*	*	*	*
!	!	!LO:PB:g=original	!	!	!	!	!
=52-	=52-	=52-	=52-	=52-	=52-	=52-	=52-
2C/	.	1c	-ſstan-	2g\	.	1e	-tri
2AA/	-tri	.	.	2c/	-tri	.	.
2E\	con-	1G	-ti-	2e\	con-	2B/	.
2E\	-ſub-	.	.	2B/	-ſub-	1e\	con-
=53-	=53-	=53-	=53-	=53-	=53-	=53-	=53-
2.AA/	-ſstan-	1E	-a-	2.c/	-ſstan-	.	.
.	.	.	.	.	.	2a\	-ſub-
*custos:C	*	*	*	*custos:e	*	*	*
4BB/	-ti-	.	.	4d\	-ti-	.	.
!LO:LB:g=original	!	!	!	!LO:LB:g=original	!	!	!
2C/	-a-	1E	-lem	2e\	-a-	2.a\	-ſstan-
2AA/	-lem	.	.	2c/	-lem	.	.
.	.	.	.	.	.	4e/	-ti-
=54-	=54-	=54-	=54-	=54-	=54-	=54-	=54-
0D	Pa-	2D/	pa-	0A	Pa-	2f\	-a-
.	.	2E/	.	.	.	2g\	-lem
.	.	1F	.	.	.	1a	Pa-
=55-	=55-	=55-	=55-	=55-	=55-	=55-	=55-
1AA	-tri	1E	-tri	1B	-tri	1a	-tri
2r	.	1B	per	2.Gny/	per	2.e/	per
1E\	per	.	.	.	.	.	.
.	.	.	.	4A/	.	4f\	.
=56-	=56-	=56-	=56-	=56-	=56-	=56-	=56-
.	.	1B	quem	4B/	.	2g\	.
.	.	.	.	4c/	.	.	.
2D/	quem	.	.	1d	.	2f\	quem
2.E\	om-	1G	om-	.	.	2.g\	om-
.	.	.	.	2c#X/	quem	.	.
*	*	*	*	*	*	*custos:g	*
4E\	-ni-	.	.	.	.	4g\	-ni-
!	!	!	!	!	!	!LO:LB:g=original	!
=57-	=57-	=57-	=57-	=57-	=57-	=57-	=57-
2BB/	-a	1B	-ni-	2.d\	om-	2g\	-a
2.GG/	fa-	.	.	.	.	4g\	fa-
.	.	.	.	4d\	-ni-	4a\	.
.	.	2d\	.	1G	-a	1b	.
4AA/	.	.	.	.	.	.	.
4BB/	.	2B\	-a	.	.	.	.
4GG/	.	.	.	.	.	.	.
=58-	=58-	=58-	=58-	=58-	=58-	=58-	=58-
2AA/	.	2c\	fa-	2cny/	fa-	1e	-cta
2AA/	-cta	2A/	-cta	2c/	-cta	.	.
1E	ſunt	1B	ſunt	1B	ſunt	1g#X	ſunt
=59-	=59-	=59-	=59-	=59-	=59-	=59-	=59-
1C	Qui	1e	Qui	1.c	qui	0gny	.
1C	pro-	1e	pro-	.	.	.	.
.	.	.	.	1G/	pro-	.	.
=60-	=60-	=60-	=60-	=60-	=60-	=60-	=60-
1GG	-pter	1B	-pter	.	.	2.b\	Qui
.	.	.	.	2d\	-pter	.	.
.	.	.	.	.	.	4a\	pro-
*	*	*custos:d	*	*	*	*	*
1C	nos	1e	nos	1e	nos	1g	-pter
!	!	!LO:LB:g=original	!	!	!	!	!
=61-	=61-	=61-	=61-	=61-	=61-	=61-	=61-
1GG	ho-	1d	ho-	2.B/	ho-	1b	nos
.	.	.	.	4d\	.	.	.
1AA	-mi-	1c	-mi-	2.A/	.	2.e/	ho-
*	*	*	*	*custos:G	*	*	*
.	.	.	.	4A/	-mi-	4e/	-mi-
!	!	!	!	!LO:LB:g=original	!	!	!
=62-	=62-	=62-	=62-	=62-	=62-	=62-	=62-
!	!	!	!	!LO:TX:b:t=P:problem=# below	!	!	!
2E\	-nes	1B	-nes	2G#/	-nes	2e/	-nes
2E\	et	.	.	2B/	et	2g#X\	et
*custos:D	*	*	*	*	*	*	*
1G	pro-	1B	et	4B/	pro-	1b	pro-
.	.	.	.	4c/	.	.	.
.	.	.	.	4d\	.	.	.
.	.	.	.	4e\	.	.	.
!LO:PB:g=original	!	!	!	!	!	!	!
=63-	=63-	=63-	=63-	=63-	=63-	=63-	=63-
2D/	-pter	1d	pro-	2f\	.	2a\	-pter
2D/	et	.	.	2f\	-pter	2a\	no-
1G	pro-	2d\	-pter	1d	no-	1.gny	-ſtram
.	.	2B\	no-	.	.	.	.
=64-	=64-	=64-	=64-	=64-	=64-	=64-	=64-
2C/	-pter	2c\	-ſtram	2e\	-ſtram	.	.
2F\	no-	2A/	ſa-	1c	ſa-	2f\	ſa-
*	*	*lig	*	*	*	*	*
2C/	-ſtram	1G	-lu-	.	.	1e	-lu-
2C/	ſa-	.	.	2c/	-lu-	.	.
=65-	=65-	=65-	=65-	=65-	=65-	=65-	=65-
*lig	*	*	*	*	*	*	*
1D	-lu-	1F	.	2A/	-tem	2f\	-tem
.	.	.	.	1d	ſa-	2a\	ſa-
*	*	*Xlig	*	*	*	*	*
*	*	*	*	*	*	*custos:f	*
1AA	.	1E	-tem	.	.	1a	-lu-
.	.	.	.	2c#X/	-lu-	.	.
*Xlig	*	*	*	*	*	*	*
!	!	!	!	!	!	!LO:PB:g=original	!
=66-	=66-	=66-	=66-	=66-	=66-	=66-	=66-
1D	-tem	1D	de-	1d	-tem	1f	-tem
1AA	de-	1E	-ſcen-	2r	.	2r	.
.	.	.	.	2c#X/	de-	2a\	de-
=67-	=67-	=67-	=67-	=67-	=67-	=67-	=67-
2D/	-ſcen-	2F/	-dit	2d\	-ſcen-	2a\	-ſcen-
4D/	-dit	2F/	de	4d\	-dit	4a\	-dit
4D/	de	.	.	4d\	de	4a\	de
1D	cae-	1F	cae-	1.d	cae-	1a	cae-
=68-	=68-	=68-	=68-	=68-	=68-	=68-	=68-
*	*	*custos:A	*	*	*	*	*
0AAl;;	-lis	0El;;	-lis	.	.	0al;;	-lis
!	!	!	!	!LO:TX:b:t=P:problem=# below	!	!	!
.	.	.	.	2c#X/	.	.	.
.	.	.	.	1c#l/;;	-lis	.	.
!	!	!LO:LB:g=original	!	!LO:LB:g=original	!	!	!
=69||	=69||	=69||	=69||	=69||	=69||	=69||	=69||
*M2/1	*	*M2/1	*	*M2/1	*	*	*
*met(C)	*	*met(C)	*	*met(C)	*	*	*
1AA	Et	1A	Et	1cny	Et	1e	Et
2.AA/	in-	2.A/	in-	2.c/	in-	2.e/	in-
4AA/	-car-	4A/	-car-	4c/	-car-	4e/	-car-
=70-	=70-	=70-	=70-	=70-	=70-	=70-	=70-
2AA/	-na-	2A/	-na-	2c/	-na-	2e/	-na-
2AA/	-tus	2A/	-tus	2c/	-tus	2e/	-tus
1.E	est	2.G#X/	eſt	2.B/	est	1.e	est
.	.	4F#y/	de	4A/	.	.	.
=71-	=71-	=71-	=71-	=71-	=71-	=71-	=71-
!	!	!	!	!LO:TX:a:t=P:problem=# above	!	!	!
.	.	1E	Spi-	1G#X	de	.	.
*custos:AA	*	*	*	*	*	*	*
2E\	de	.	.	.	.	2e/	de
!LO:LB:g=original	!	!	!	!	!	!	!
1AA	Spi-	1A	.	1c	Spi-	1e	Spi-
=72-	=72-	=72-	=72-	=72-	=72-	=72-	=72-
2AA/	-ri-	2A/	-ri-	2c/	-ri-	2e/	-ri-
2E\	-tu	2G#y/	-tu	2B/	-tu	2e/	-tu
0AA	San-	1.A	San-	0c	San-	0e	San-
=73-	=73-	=73-	=73-	=73-	=73-	=73-	=73-
.	.	.	.	.	.	.	.
.	.	2E/	.	.	.	.	.
*	*	*	*	*	*	*custos:e	*
2E\	-cto	2G#X/	-cto	1B	-cto	2e/	-cto
!	!	!	!	!	!	!LO:LB:g=original	!
1E\	Ex	1G#X/	Ex	.	.	1e\	Ex
=74-	=74-	=74-	=74-	=74-	=74-	=74-	=74-
.	.	.	.	2B/	Ex	.	.
2E\	ma-	2G#y/	Ma-	2B/	Ma-	2e/	Ma-
1.AA	-ri-	1.A	-ri-	1c	-ri-	1e	-ri-
=75-	=75-	=75-	=75-	=75-	=75-	=75-	=75-
.	.	.	.	1c	-a	1a	-a
*	*	*custos:F	*	*	*	*	*
2AA/	-a	2A/	-a	.	.	.	.
!	!	!LO:LB:g=original	!	!	!	!	!
1.D	Vir-	1.Fny	Vir-	4f\	Vir-	4a\	Vir-
.	.	.	.	4e\	.	4g\	.
.	.	.	.	4d\	.	4f\	.
*	*	*	*	*custos:d	*	*	*
.	.	.	.	4c/	.	4e/	.
!	!	!	!	!LO:LB:g=original	!	!	!
=76-	=76-	=76-	=76-	=76-	=76-	=76-	=76-
.	.	.	.	2d\	.	2d/	.
2D/	-gi-	2A/	-gi-	2f\	-gi-	2d/	-gi-
1.AA	-ne	1A	-ne	1c	-ne	1.e	-ne
=77-	=77-	=77-	=77-	=77-	=77-	=77-	=77-
.	.	1c	et	2A/	Et	.	.
2AA/	et	.	.	4E/	ho-	2e/	et
.	.	.	.	4F#y/	.	.	.
1E	ho-	4B\	ho-	4G#X/	.	1e	ho-
.	.	4A/	-mo	4A/	.	.	.
.	.	2.G#X/	fa-	4B/	.	.	.
.	.	.	.	4E/	.	.	.
=78-	=78-	=78-	=78-	=78-	=78-	=78-	=78-
1AA	-mo	.	.	2.e\	.	1a	-mo
.	.	4F#y/	.	.	.	.	.
.	.	2E/	.	.	.	.	.
.	.	.	.	4B/	.	.	.
1.D	fa-	2.Fny/	.	2.A/	-mo	2.a\	fa-
.	.	4E/	.	8B/L	.	4g\	.
.	.	.	.	8c\J	.	.	.
=79-	=79-	=79-	=79-	=79-	=79-	=79-	=79-
.	.	2D/	.	2.d\	fa-	2f\	.
2D/	-ctus	2F/	-ctus	.	.	2a\	-ctus
.	.	.	.	4c#X/	-ctus	.	.
*	*	*	*	*custos:B	*	*	*
1AAl;;	eſt	1El;	eſt	1c#l;;/	eſt	1al;;	eſt
!	!	!	!	!LO:PB:g=original	!	!LO:LB:g=original	!
=80||	=80||	=80||	=80||	=80||	=80||	=80||	=80||
*M2/1	*	*	*	*M2/1	*	*	*
*met(C)	*	*	*	*met(C)	*	*	*
0r	.	1.E	Cru-	1r	.	00r	.
.	.	.	.	1.B	Cru-	.	.
.	.	2E/	-ci-	.	.	.	.
=81-	=81-	=81-	=81-	=81-	=81-	=81-	=81-
1r	.	2G/	-fi-	.	.	.	.
*	*	*custos:A	*	*	*	*	*
.	.	2G/	-xus	2B/	-ci-	.	.
!	!	!LO:LB:g=original	!	!	!	!	!
1.AA	Cru-	2.A/	e-	1c	-fi-	.	.
.	.	4A/	-ti-	.	.	.	.
=82-	=82-	=82-	=82-	=82-	=82-	=82-	=82-
.	.	2E/	-am	2A/	-xus	1.e	Cru-
*custos:C	*	*	*	*	*	*	*
2AA/	-ci-	2.e\	e-	2.c/	e-	.	.
!LO:LB:g=original	!	!	!	!	!	!	!
2C/	-fi-	.	.	.	.	.	.
.	.	4d\	-ti-	4B/	-ti-	.	.
2C/	-xus	4c\	-am	4A/	-am	2e/	-ci-
.	.	4B\	pro	4G/	pro	.	.
=83-	=83-	=83-	=83-	=83-	=83-	=83-	=83-
2.D/	e-	2A/	no-	2F/	no-	2f\	-fi-
.	.	1d	.	2A/	-bis	2f\	-xus
4D/	-ti-	.	.	.	.	.	.
*	*	*	*	*	*ij	*	*ij
2AA/	-am	.	.	2A/	Cru-	1.e	Cru-
1AA/	cru-	4c\	.	2A/	-ci-	.	.
.	.	4B\	.	.	.	.	.
=84-	=84-	=84-	=84-	=84-	=84-	=84-	=84-
.	.	2A/	.	2c/	-fi-	.	.
2AA/	-ci-	2c\	.	2c/	-xus	2e/	-ci-
1E	-fi-	1B	.	2.e\	e-	2g\	-fi-
.	.	.	.	.	.	2g\	-xus
.	.	.	.	4e\	-ti-	.	.
*	*	*	*	*	*	*	*Xij
=85-	=85-	=85-	=85-	=85-	=85-	=85-	=85-
2AA/	-xus	2A/	-bis	2.c/	-am	1a	e-
1AA	cru-	1E	Cru-	.	.	.	.
.	.	.	.	4d\	.	.	.
.	.	.	.	4e\	.	2e/	-ti-
*	*	*	*	*custos:c	*	*	*
.	.	.	.	4d\	.	.	.
!	!	!	!	!LO:LB:g=original	!	!	!
2AA/	-ci-	2E/	-ci-	4c/	.	2.c/	-am
.	.	.	.	4B/	.	.	.
=86-	=86-	=86-	=86-	=86-	=86-	=86-	=86-
*	*	*custos:E	*	*	*	*	*
2.C/	-fi-	2A/	-fi-	2c/	.	.	.
.	.	.	.	.	.	4B/	.
!	!	!LO:PB:g=original	!	!	!	!	!
.	.	2E/	-xus	2.e\	pro	2A/	.
4D/	.	.	.	.	.	.	.
1E	.	2.E/	e-	.	.	2a\	pro
.	.	.	.	8d\L	.	.	.
.	.	.	.	8c\J	.	.	.
.	.	.	.	2B/	no-	2g#X\	no-
.	.	4E/	-ti-	.	.	.	.
=87-	=87-	=87-	=87-	=87-	=87-	=87-	=87-
1AA	-xus	2E/	-am	2A/	-bis	1a	-bis
*	*	*	*	*	*Xij	*	*
.	.	1F	pro	1A	e-	.	.
2D/	e-	.	.	.	.	2f\	pro
2C/	-ti-	2.c\	no-	2e\	-ti-	1e\	no-
=88-	=88-	=88-	=88-	=88-	=88-	=88-	=88-
1.F	-am	.	.	2c/	-am	.	.
.	.	4B\	.	.	.	.	.
.	.	4A/	.	2.F/	pro	4d/	.
.	.	4G/	.	.	.	4c/	.
*	*	*	*	*	*	*custos:e	*
.	.	4F/	.	.	.	1d	.
.	.	4E/	.	4G/	.	.	.
2F\	pro	1A/	.	2A/	.	.	.
!	!	!	!	!	!	!LO:LB:g=original	!
=89-	=89-	=89-	=89-	=89-	=89-	=89-	=89-
0E	no-	.	.	1.B	no-	1.e	-bis
.	.	4G#X/	.	.	.	.	.
.	.	4F#X/	.	.	.	.	.
.	.	4G#X/	.	.	.	.	.
.	.	4A/	.	.	.	.	.
.	.	2B\	.	2e\	.	2e/	ſub
=90-	=90-	=90-	=90-	=90-	=90-	=90-	=90-
1AA	-bis	2A/	-bis	4c/	-bis	2e/	Pon-
.	.	.	.	4A/	ſub	.	.
.	.	2A/	ſub	2.c/	Pon-	2e/	-ti-
0r	.	2A/	Pon-	.	.	2e/	-o
.	.	.	.	4c/	-ti-	.	.
.	.	2Fny/	-ti-	2c/	-o	1f\	Pi-
=91-	=91-	=91-	=91-	=91-	=91-	=91-	=91-
.	.	2B-X\	-o	2d\	Pi-	.	.
*	*	*custos:A	*	*	*	*	*
.	.	2Gny/	Pi-	1d	-la-	2gny\	-la-
!	!	!LO:LB:g=original	!	!	!	!	!
2r	.	2A/	-la-	.	.	1e	-to
1AA/	paſ-	2A/	-to	4c/	.	.	.
*	*	*	*	*custos:c	*	*	*
.	.	.	.	4B/	.	.	.
!	!	!	!	!LO:LB:g=original	!	!	!
=92-	=92-	=92-	=92-	=92-	=92-	=92-	=92-
.	.	2A/	paſ-	2c/	-to	1e	paſ-
1AA	-sus	2A/	-sus	1c	paſ-	.	.
.	.	2.A/	et	.	.	2e/	-sus
*custos:GG	*	*	*	*	*	*	*
1D/	et	.	.	2A/	-sus	2.f\	et
.	.	4G/	.	.	.	.	.
=93-	=93-	=93-	=93-	=93-	=93-	=93-	=93-
.	.	2F/	.	2A/	et	.	.
.	.	.	.	.	.	4e/	se-
!LO:LB:g=original	!	!	!	!	!	!	!
2GG/	Se-	2G/	Se-	2B/	Se-	1d	-pul-
2.AA/	-pul-	2E/	-pul-	2.A/	-pul-	.	.
.	.	2E/	-tus	.	.	2c#X/	-tus
4AA/	-tus	.	.	4A/	-tus	.	.
=94-	=94-	=94-	=94-	=94-	=94-	=94-	=94-
1D	eſt	1D	est	0A	eſt	0d	eſt
1.D	et	2F/	Et	.	.	.	.
.	.	4D/	re-	.	.	.	.
.	.	4E/	.	.	.	.	.
=95-	=95-	=95-	=95-	=95-	=95-	=95-	=95-
.	.	4F/	.	1A	Et	1r	.
.	.	4G/	.	.	.	.	.
1F	re-	2.A/	.	.	.	.	.
.	.	.	.	2c/	re-	1cny	Et
.	.	4Bny\	-ſur-	.	.	.	.
2E\	-ſur-	1c\	-re-	2G/	-sur-	.	.
=96-	=96-	=96-	=96-	=96-	=96-	=96-	=96-
1D	-re-	.	.	2A/	-re-	1d	re-
.	.	2B\	.	4G/	.	.	.
.	.	.	.	4F/	.	.	.
1C	-xit	1c	-xit	2E/	-xit	1e	-sur-
.	.	.	.	2G/	ter-	.	.
=97-	=97-	=97-	=97-	=97-	=97-	=97-	=97-
1r	.	2r	.	1A	-ti-	1f	-re-
.	.	2F/	ter-	.	.	.	.
*	*	*custos:A	*	*	*	*	*
2r	.	2G/	-ti-	2B/	-a	1e	-xit
!	!	!LO:LB:g=original	!	!	!	!	!
2C/	ter-	2A/	-a	2c/	di-	.	.
=98-	=98-	=98-	=98-	=98-	=98-	=98-	=98-
*	*	*	*	*	*	*custos:f	*
1D	-ti-	2D/	di-	2A/	-e	2r	.
!	!	!	!	!	!	!LO:LB:g=original	!
.	.	2d\	.	2r	.	2f\	ter-
2E\	.	2c\	.	1r	.	2g\	-ti-
2F\	-a	4B\	.	.	.	1a\	-a
.	.	4A/	.	.	.	.	.
=99-	=99-	=99-	=99-	=99-	=99-	=99-	=99-
1E	di-	1B	.	2r	.	.	.
*	*	*	*	*custos:c	*	*	*
.	.	.	.	2e\	Se-	2g#X\	di-
!	!	!	!	!LO:LB:g=original	!	!	!
1AA	-e	2c\	-e	2c/	-cun-	1a	-e
.	.	2A/	Se-	2c/	-dum	.	.
=100-	=100-	=100-	=100-	=100-	=100-	=100-	=100-
2r	.	2F/	-cun-	2.d\	Scri-	2r	.
2A\	Se-	2D/	-dum	.	.	2a\	Se-
.	.	.	.	4e\	.	.	.
2F\	-cun-	1d	Scri-	1f	.	2a\	-cun-
2D/	-dum	.	.	.	.	1a\	-dum
=101-	=101-	=101-	=101-	=101-	=101-	=101-	=101-
1E	Scri-	1B	-ptu-	2.e\	-ptu-	.	.
.	.	.	.	.	.	2gny\	Scri-
.	.	.	.	4d\	.	.	.
2.AA/	-ptu-	4A/	.	4c/	.	2.cc\	-ptu-
.	.	4B\	.	4B/	.	.	.
.	.	1c\	.	2A/	.	.	.
4BB/	.	.	.	.	.	4b\	.
=102-	=102-	=102-	=102-	=102-	=102-	=102-	=102-
4C/	.	.	.	1.e	.	2a\	.
4D/	.	.	.	.	.	.	.
*custos:C	*	*	*	*	*	*	*
2E\	.	2B\	.	.	.	2.g\	.
!LO:LB:g=original	!	!	!	!	!	!	!
1C	.	2.c\	.	.	.	.	.
.	.	.	.	.	.	4f\	.
.	.	.	.	2c/	-ras	2e/	.
.	.	4B\	.	.	.	.	.
=103-	=103-	=103-	=103-	=103-	=103-	=103-	=103-
2D/	.	2A/	.	4f\	Scri-	2d/	.
.	.	.	.	4e\	.	.	.
2GG/	.	2.G/	.	4d\	.	2.e/	.
.	.	.	.	4c/	.	.	.
1BB-X	.	.	.	4B-X/	.	.	.
.	.	4F/	.	4A/	.	4d/	.
.	.	4E/	.	2G/	.	1d/	.
.	.	4D/	.	.	.	.	.
=104-	=104-	=104-	=104-	=104-	=104-	=104-	=104-
1AA	.	1E	.	1A	-ptu-	.	.
!	!	!	!	!	!	!LO:TX:b:t=P:problem=# below	!
.	.	.	.	.	.	2c#X/	.
*	*	*custos:A	*	*custos:F	*	*custos:d	*
1D	-ras	1D	-ras	1A	-ras	1d	-ras
!	!	!LO:LB:g=original	!	!LO:LB:g=original	!	!LO:PB:g=original	!
=105-	=105-	=105-	=105-	=105-	=105-	=105-	=105-
*M3/1	*	*M3/1	*	*M3/1	*	*M3/1	*
*met(O)	*	*met(O)	*	*met(O)	*	*met(O)	*
0D	Et	1.A	Et	2F/	Et	2d/	Et
.	.	.	.	2G/	.	2e/	.
.	.	.	.	2A/	.	2f\	.
.	.	2G/	aſ-	2Bny/	.	2g\	.
1D	aſ-	1F	-cen-	2c/	.	2a\	.
.	.	.	.	2d\	.	2b\	.
=106-	=106-	=106-	=106-	=106-	=106-	=106-	=106-
1.AA	-cen-	0E	-dit	0e	.	0cc	.
2BBny/	.	.	.	.	.	.	.
2C/	.	1E	in	1e	aſ-	1cc	aſ-
2D/	.	.	.	.	.	.	.
=107-	=107-	=107-	=107-	=107-	=107-	=107-	=107-
1E	.	0.G	cae-	1e	-cen-	1b	-cen-
1C	-dit	.	.	1e	-dit	1cc	-dit
1C	in	.	.	1e	in	1cc	in
=108-	=108-	=108-	=108-	=108-	=108-	=108-	=108-
0.D	cae-	1.F	.	1e	cae-	0.a	cae-
.	.	.	.	0d	.	.	.
.	.	2G/	.	.	.	.	.
.	.	1A	.	.	.	.	.
=109-	=109-	=109-	=109-	=109-	=109-	=109-	=109-
0.A	-lum	0.A	-lum	0.c	-lum	0.e	-lum
=110-	=110-	=110-	=110-	=110-	=110-	=110-	=110-
0.D	ſe-	0.A	ſe-	0.d	ſe-	0.f	ſe-
=111-	=111-	=111-	=111-	=111-	=111-	=111-	=111-
0AA	-det	1A	-det	0c	-det	0e	-det
.	.	0c	ad	.	.	.	.
*custos:C	*	*	*	*	*	*	*
1AA	ad	.	.	1A	ad	1cny	ad
!LO:PB:g=original	!	!	!	!	!	!	!
=112-	=112-	=112-	=112-	=112-	=112-	=112-	=112-
1.C	dex-	1.C	dex-	1.G	dex-	1e	dex-
.	.	.	.	.	.	1e	-te-
2C/	-te-	2E/	-te-	2G/	-te-	.	.
1GG	-ram	1E	-ram	1G	-ram	1e	-ram
=113-	=113-	=113-	=113-	=113-	=113-	=113-	=113-
*	*	*	*	*	*	*custos:e	*
0.AA	Pa-	1.C	Pa-	0.c	pa-	0.e	Pa-
.	.	2D/	.	.	.	.	.
.	.	2E/	.	.	.	.	.
*	*	*custos:G	*	*	*	*	*
!	!	!LO:TX:b:t=P:problem=# below	!	!	!	!	!
.	.	2F#X/	.	.	.	.	.
!	!	!LO:LB:g=original	!	!	!	!LO:LB:g=original	!
=114-	=114-	=114-	=114-	=114-	=114-	=114-	=114-
0E	-tris	0G#X	-tris	0B	-tris	0e	-tris
*	*	*	*	*custos:e	*	*	*
1E	Et	1B	Et	1e	Et	1g#X	Et
!	!	!	!	!LO:PB:g=original	!	!	!
=115-	=115-	=115-	=115-	=115-	=115-	=115-	=115-
1.A	i-	1.c	i-	1.e	i-	1.a	i-
2A\	-te-	2c\	-te-	2e\	-te-	2a\	-te-
1A	-rum	1c	-rum	1e	-rum	1a	-rum
=116-	=116-	=116-	=116-	=116-	=116-	=116-	=116-
1F	ven-	1c	ven-	1f	ven-	1a	ven-
1E	-tu-	1Gny	-tu-	1c	-tu-	1gny	-tu-
1D	-rus	1A	-rus	1d	-rus	1f	-rus
=117-	=117-	=117-	=117-	=117-	=117-	=117-	=117-
0AA	eſt	0A	eſt	0c#X	eſt	0e	eſt
1AA	cum	1A	cum	1c#	cum	1e	cum
=118-	=118-	=118-	=118-	=118-	=118-	=118-	=118-
1.D	glo-	1.A	glo-	1.d	glo-	1.f	glo-
2D/	-ri-	2A/	-ri-	2d\	-ri-	2f\	-ri-
2D/	-a	2A/	-a	2d\	-a	2f\	-a
2D/	cum	2A/	cum	2d\	cum	2f\	cum
=119-	=119-	=119-	=119-	=119-	=119-	=119-	=119-
1.A	glo-	1.c	gl(o-	1.e	gl(o-	1.a	gl(o-
2A\	-ri-	2c\	-ri)-	2e\	-ri)-	2a\	-ri)-
1A	-a	1c	-a	1e	-a	1a	-a
=120-	=120-	=120-	=120-	=120-	=120-	=120-	=120-
1.AA	iu-	1.c	iu-	1.e	iu-	1.a	iu-
2AA/	-di-	2c\	-di-	2e\	-di-	2a\	-di-
*custos:D	*	*	*	*	*	*custos:f	*
1AA	-ca-	1c	-ca-	1e	-ca-	1a	-ca-
!LO:LB:g=original	!	!	!	!	!	!LO:LB:g=original	!
=121-	=121-	=121-	=121-	=121-	=121-	=121-	=121-
1D	-re	1A	-re	1d	-re	1f	-re
1AA	vi-	1c	vi-	1e	vi-	1a	vi-
*	*	*custos:A	*	*custos:d	*	*	*
1AA	-uos	1c	-uos	1e	-uos	1a	-uos
!	!	!LO:PB:g=original	!	!LO:LB:g=original	!	!	!
=122-	=122-	=122-	=122-	=122-	=122-	=122-	=122-
0.FF	et	0.A	et	0.d	et	2a\	et
.	.	.	.	.	.	2g\	.
.	.	.	.	.	.	2f\	.
.	.	.	.	.	.	2g\	.
.	.	.	.	.	.	2a\	.
.	.	.	.	.	.	2b-y\	.
=123-	=123-	=123-	=123-	=123-	=123-	=123-	=123-
0AA	mor-	0A	mor-	0e	mor-	0a	mor-
1AA	-tu-	1A	-tu-	1e	-tu-	1a	-tu-
=124-	=124-	=124-	=124-	=124-	=124-	=124-	=124-
1D	-os	0Fny	-os	0d	-os	1a	-os
1D	cu-	.	.	.	.	1f	cu-
1E	-ius	1r	.	1r	.	1g	-ius
=125-	=125-	=125-	=125-	=125-	=125-	=125-	=125-
1.F	re-	1r	.	0.r	.	1.a	re-
.	.	1A	cu-	.	.	.	.
2E\	-gni	.	.	.	.	2g\	-gni
1D	non	1B	-ius	.	.	1f	non
=126-	=126-	=126-	=126-	=126-	=126-	=126-	=126-
1C	e-	1.c	re-	1r	.	1e	e-
0AA	-rit	.	.	1e	cu-	0c	-rit
.	.	2B\	-gni	.	.	.	.
.	.	1A	non	1f	-ius	.	.
=127-	=127-	=127-	=127-	=127-	=127-	=127-	=127-
2E\	fi-	0G	e-	1.g	re-	2g\	fi-
2D/	.	.	.	.	.	2f\	.
2C/	.	.	.	.	.	2e\	.
2D/	.	.	.	2f\	-gni	2f\	.
2E\	.	1G	-rit	1e	non	2g\	.
*	*	*	*	*	*	*custos:b	*
2F\	.	.	.	.	.	2a\	.
!	!	!	!	!	!	!LO:LB:g=original	!
=128-	=128-	=128-	=128-	=128-	=128-	=128-	=128-
*lig	*	*	*	*col	*	*col	*
1G	.	1G	non	1d	e-	0bny	.
1C	.	1E	e-	0cny	-rit	.	.
*Xlig	*	*	*	*	*	*	*
1D	.	1A	-rit	.	.	0a	-nis
*	*	*	*	*Xcol	*	*	*
=129-	=129-	=129-	=129-	=129-	=129-	=129-	=129-
0.E	.	0.E	fi-	0.B	fi-	.	.
.	.	.	.	.	.	0g#X	fi-
*	*	*	*	*	*	*Xcol	*
=130-	=130-	=130-	=130-	=130-	=130-	=130-	=130-
*custos:E	*	*	*	*	*	*	*
0.AA	-nis	0.E	-nis	0.A	-nis	0.a,<	-nis
!LO:LB:g=original	!	!	!	!	!	!	!
=131-	=131-	=131-	=131-	=131-	=131-	=131-	=131-
0E	cu-	0G	cu-	0e	cu-	0gny	Cu-
1F	-ius	1A	-ius	1d	-ius	1f	-ius
=132-	=132-	=132-	=132-	=132-	=132-	=132-	=132-
1.G	re-	1.B	re-	[0d	re-	1d	re-
.	.	.	.	.	.	2e/	-gni
2F\	-gni	2A/	-gni	.	.	2f\	non
1E	non	1G	non	1d]	.	1g	e-
!	!	!LO:LB:g=original	!	!	!	!	!
=133-	=133-	=133-	=133-	=133-	=133-	=133-	=133-
0D	e-	0A	e-	0.d	-gni	0.f	-rit
1D	-rit	1A	-rit	.	.	.	.
=134-	=134-	=134-	=134-	=134-	=134-	=134-	=134-
*	*	*	*	*custos:d	*	*	*
0F	fi-	0A	cu-	0.r	.	00.r	.
1G	.	1B	-ius	.	.	.	.
=135-	=135-	=135-	=135-	=135-	=135-	=135-	=135-
1.A	.	1.c	re-	1r	.	.	.
.	.	.	.	1e	cu-	.	.
2G\	.	2B\	-gni	.	.	.	.
1F	.	1A	non	1f	-ius	.	.
=136-	=136-	=136-	=136-	=136-	=136-	=136-	=136-
0E	.	0G	e-	1.g	re-	1e	cu-
.	.	.	.	.	.	1b	-ius
.	.	.	.	2f\	-gni	.	.
1A	.	1c	.	1e	non	1a	re-
=137-	=137-	=137-	=137-	=137-	=137-	=137-	=137-
[0.E	.	1B	-rit	0e	e-	1a	-gni
.	.	1B	fi-	.	.	1a	non
.	.	1E	.	1e	-rit	1g#X	e-
=138-	=138-	=138-	=138-	=138-	=138-	=138-	=138-
*	*	*	*	*	*	*col	*
0.E]	.	0.B	.	0.e	fi-	1g#y	-rit
.	.	.	.	.	.	0g#	fi-
*	*	*	*	*	*	*Xcol	*
=139-	=139-	=139-	=139-	=139-	=139-	=139-	=139-
0.AAl;;	-nis	0.c#Xl;;	-nis	0.el;;	-nis	0.al;;	-nis
!	!	!	!	!	!	!LO:LB:g=original	!
=140||	=140||	=140||	=140||	=140||	=140||	=140||	=140||
2.D/	Et	2.A/	Et	2.f\	Et	1d	Et
4D/	in	4A/	in	4f\	in	.	.
2AA/	Spi-	2A/	Spi-	2c/	Spi-	1e	in
4AA/	-ri-	4A/	-ri-	4c/	-ri-	.	.
4AA/	-tum	4A/	-tum	4c/	-tum	.	.
=141-	=141-	=141-	=141-	=141-	=141-	=141-	=141-
1E	San-	2B\	San-	1e	San-	2.g\	Spi-
.	.	1E	.	.	.	.	.
.	.	.	.	.	.	4g\	-ri-
1AA	-ctum	.	.	4c#X/	-ctum	1a	-tum
.	.	.	.	4d\	.	.	.
.	.	2A/	-ctum	4e\	.	.	.
.	.	.	.	4c#X/	.	.	.
=142-	=142-	=142-	=142-	=142-	=142-	=142-	=142-
1.D	Do-	1.A	Do-	2.f\	Do-	2d/	San-
.	.	.	.	.	.	2e/	-ctum
.	.	.	.	4e\	.	.	.
.	.	.	.	2.d\	.	2f\	Do-
*custos:AA	*	*custos:A	*	*	*	*	*
2D/	-mi-	2A/	-mi-	.	.	2f\	-mi-
.	.	.	.	4d\	-mi-	.	.
!LO:LB:g=original	!	!LO:LB:g=original	!	!	!	!	!
=143-	=143-	=143-	=143-	=143-	=143-	=143-	=143-
1AA	-num	1A	-num	1c#X	-num	1e	-num
1r	.	4G/	Et	2r	.	1g	et
.	.	4G/	vi-	.	.	.	.
.	.	4G/	-ui-	4d\	et	.	.
.	.	8F/L	.	4d\	vi-	.	.
.	.	8E/J	.	.	.	.	.
=144-	=144-	=144-	=144-	=144-	=144-	=144-	=144-
4D/	et	4D/	.	4d\	-ui-	2a\	vi-
4D/	vi-	4E/	.	8cny/L	.	.	.
.	.	.	.	8B/J	.	.	.
4D/	-ui-	4F/	.	4A/	.	4a\	-ui-
8C/L	.	4G/	-fi-	4B/	.	4a\	-fi-
8BB/J	.	.	.	.	.	.	.
4AA/	.	2A/	-can-	4c/	.	1a	-can-
*	*	*	*	*custos:e	*	*	*
4BB/	.	.	.	4d\	-fi-	.	.
!	!	!	!	!LO:LB:g=original	!	!	!
4C/	.	2A/	-tem	1e\	-can-	.	.
4D/	-fi-	.	.	.	.	.	.
=145-	=145-	=145-	=145-	=145-	=145-	=145-	=145-
1E	-can-	1r	.	.	.	1g	-tem
.	.	.	.	2e\	-tem	.	.
*	*	*	*ij	*	*	*	*
1AA	-tem	4A/	Et	4c/	et	2cc\	Qui
.	.	4A/	vi-	4c/	vi-	.	.
.	.	4A/	-ui-	4c/	-ui-	2cc\	ex
.	.	8G/L	.	8B/L	-fi-	.	.
.	.	8F/J	.	8A/J	.	.	.
=146-	=146-	=146-	=146-	=146-	=146-	=146-	=146-
2r	.	4E/	.	4B/	-can-	2g\	Pa-
.	.	4D/	-fi-	4B/	-tem	.	.
2.C/	qui	2C/	-can-	4c/	qui	2g\	-tre
.	.	.	.	4d\	ex	.	.
.	.	2G/	-tem	4e\	Pa-	2.e/	fi-
4D/	ex	.	.	4f\	-tre	.	.
*	*	*	*Xij	*	*	*	*
4E\	Pa-	4G/	qui	4g\	fi-	.	.
4F\	-tre	4A/	ex	4f\	-li-	4e/	-li-
=147-	=147-	=147-	=147-	=147-	=147-	=147-	=147-
*	*	*	*	*	*	*custos:d	*
4G\	fi-	4B\	Pa-	1e	-o-	1e	-o-
4G\	-li-	4B\	-tre	.	.	.	.
2A\	-o-	4c#X\	fi-	.	.	.	.
*	*	*custos:d	*	*	*	*	*
.	.	4c#\	-li-	.	.	.	.
!	!	!LO:LB:g=original	!	!	!	!LO:PB:g=original	!
2D/	-que	2d\	-o-	2f\	-que	2d/	-que
2C#X/	pro-	4A/	-que	1e\	pro-	2e/	pro-
.	.	4A/	pro-	.	.	.	.
=148-	=148-	=148-	=148-	=148-	=148-	=148-	=148-
1D	-ce-	1A	-ce-	.	.	1f	-ce-
.	.	.	.	1d	-ce-	.	.
1AA	-dit	1A	-dit	.	.	1e	-dit
.	.	.	.	2c#X/	-dit	.	.
=149-	=149-	=149-	=149-	=149-	=149-	=149-	=149-
1.GG	qui	1B	Qui	1.d	Qui	1g	Qui
.	.	1B	cum	.	.	1g	cum
2GG/	cum	.	.	2d\	cum	.	.
=150-	=150-	=150-	=150-	=150-	=150-	=150-	=150-
*custos:GG	*	*	*	*custos:B	*	*	*
1Cny	Pa-	1G	Pa-	1cny	Pa-	1e	Pa-
!LO:LB:g=original	!	!	!	!LO:PB:g=original	!	!	!
1.GG	-tre	1B	-tre	2B/	-tre	1d	-tre
.	.	.	.	2G/	et	.	.
=151-	=151-	=151-	=151-	=151-	=151-	=151-	=151-
.	.	2d\	et	1B	Fi-	1g	et
2GG/	et	2B\	.	.	.	.	.
2.AA/	fi-	2cny\	fi-	2.A/	.	2.e/	fi-
.	.	2A/	-li-	.	.	.	.
4AA/	-li-	.	.	4A/	-li-	4e/	-li-
=152-	=152-	=152-	=152-	=152-	=152-	=152-	=152-
1E	-o	1B	-o	1G#X	-o	1e	-o
1.C	ſi-	1e	ſi-	1.c	ſi-	1e	ſi-
=153-	=153-	=153-	=153-	=153-	=153-	=153-	=153-
.	.	1e	-mul	.	.	1g	-mul
2C/	-mul	.	.	2e\	-mul	.	.
1G	a-	1B	a-	1d	a-	1g	a-
=154-	=154-	=154-	=154-	=154-	=154-	=154-	=154-
1C	-do-	1e	-do-	1c	-do-	0g	-do-
*lig	*	*lig	*	*	*	*	*
1GG	-ra-	1d	-ra-	1B	-ra-	.	.
=155-	=155-	=155-	=155-	=155-	=155-	=155-	=155-
1AA	.	1c	.	1A	.	4c/	-ra-
.	.	.	.	.	.	4d/	.
*	*	*	*	*	*	*custos:e	*
.	.	.	.	.	.	2e/	-tur
*Xlig	*	*Xlig	*	*	*	*	*
!	!	!	!	!	!	!LO:LB:g=original	!
4E\	-tur	1B	-tur	4G#X/	-tur	2e/	et
4E\	et	.	.	4G#/	et	.	.
4E\	con-	.	.	4G#/	con-	4e/	con-
4F\	-glo-	.	.	4A/	-glo-	4e/	-glo-
=156-	=156-	=156-	=156-	=156-	=156-	=156-	=156-
*	*	*custos:d	*	*	*	*	*
2G\	-ri-	1B	et	2B/	-ri-	2d/	-ri-
2E\	-fi-	.	.	2Gny/	-fi-	2e/	-fi-
!	!	!LO:LB:g=original	!	!	!	!	!
1BB	-ca-	1d	con-	1G	-ca-	1.g	-ca-
=157-	=157-	=157-	=157-	=157-	=157-	=157-	=157-
1GG	-tur	2d\	-glo-	1G	-tur	.	.
.	.	2B\	.	.	.	2d/	.
2AA/	et	2c\	-ri-	2c/	et	2e/	-tur
4AA/	con-	2A/	-fi-	4c/	con-	4e/	qui
*	*	*	*	*custos:e	*	*	*
4BB/	-glo-	.	.	4d\	-glo-	4e/	lo-
!	!	!	!	!LO:LB:g=original	!	!	!
=158-	=158-	=158-	=158-	=158-	=158-	=158-	=158-
*	*	*lig	*	*	*	*	*
2C/	-ri-	1G	-ca-	2e\	-ri-	2e/	-cu-
2E\	-fi-	.	.	2B/	-fi-	2g\	-tus
2F\	-ca-	1F	.	1c	-ca-	2a\	eſt
*custos:AA	*	*	*	*	*	*	*
2FF/	.	.	.	.	.	2a\	per
*	*	*Xlig	*	*	*	*	*
!LO:PB:g=original	!	!	!	!	!	!	!
=159-	=159-	=159-	=159-	=159-	=159-	=159-	=159-
1AA	-tur	1E	-tur	1c	-tur	2a\	Pro-
.	.	.	.	.	.	4a\	-phe-
.	.	.	.	.	.	4g\	.
*	*	*	*	*	*ij	*	*
2A\	et	2D/	con-	4d\	et	2f\	.
.	.	.	.	2f\	con-	.	.
4A\	con-	2E/	-glo-	.	.	2a\	.
4G\	-glo-	.	.	4e\	-glo-	.	.
=160-	=160-	=160-	=160-	=160-	=160-	=160-	=160-
2F\	-ri-	2.F/	-ri-	2.d\	-ri-	0a	.
2E\	-fi-	.	.	.	.	.	.
.	.	4F/	-fi-	4d\	-fi-	.	.
1D	-ca-	1F	-ca-	1d	-ca-	.	.
=161-	=161-	=161-	=161-	=161-	=161-	=161-	=161-
*	*	*	*	*	*	*custos:e	*
4AA/	-tur	1E	-tur	1c#X	-tur	1a	-tas
*	*	*	*	*	*Xij	*	*
2AA/	Qui	.	.	.	.	.	.
4AA/	lo-	.	.	.	.	.	.
!	!	!	!	!	!	!LO:LB:g=original	!
2.C/	-cu-	0r	.	1r	.	2.e/	Qui
4C/	-tus	.	.	.	.	4e/	lo-
=162-	=162-	=162-	=162-	=162-	=162-	=162-	=162-
1D	eſt	.	.	2.A/	qui	2f\	-cu-
.	.	.	.	.	.	2f\	-tus
.	.	.	.	4A/	lo-	.	.
*	*ij	*	*	*	*	*	*
2AA/	Qui	1r	.	2cny/	-cu-	1a	eſt
2AA/	lo-	.	.	2c/	-tus	.	.
=163-	=163-	=163-	=163-	=163-	=163-	=163-	=163-
1C	-cu-	2.E/	qui	2e\	eſt	2g\	per
.	.	.	.	2.e\	per	2g\	pro-
.	.	4E/	lo-	.	.	.	.
1E	-tus	2G/	-cu-	.	.	1g	-phe-
.	.	.	.	4d\	.	.	.
.	.	2G/	-tus	4c/	.	.	.
.	.	.	.	4B/	.	.	.
=164-	=164-	=164-	=164-	=164-	=164-	=164-	=164-
2.AA/	eſt	1A	eſt	2A/	.	0e	-tas
*	*Xij	*	*	*	*	*	*
*	*	*	*	*custos:G	*	*	*
.	.	.	.	2A/	Pro-	.	.
4AA/	lo-	.	.	.	.	.	.
!	!	!	!	!LO:LB:g=original	!	!	!
2C/	-cu-	2E/	per	2G/	-phe-	.	.
2C/	-tus	2G/	pro-	2c/	-tas	.	.
!	!	!	!LO:PB:g=original	!	!	!	!
=165-	=165-	=165-	=165-	=165-	=165-	=165-	=165-
*	*	*	*	*	*ij	*	*
1D	eſt	2F/	-phe-	2.A/	qui	1r	.
.	.	4E/	.	.	.	.	.
.	.	4D/	.	4A/	lo-	.	.
*lig	*	*	*	*	*	*	*ij
1AA	per	4E/	-tas	2c/	-cu-	2.e/	qui
.	.	2A/	qui	.	.	.	.
.	.	.	.	2c/	-tus	.	.
.	.	4A/	lo-	.	.	4e/	lo-
=166-	=166-	=166-	=166-	=166-	=166-	=166-	=166-
*custos:FF	*	*	*	*	*	*	*
1GG	.	2B\	-cu-	2d\	eſt	2g\	-cu-
.	.	2B\	-tus	2G/	per	2g\	-tus
*Xlig	*	*	*	*	*	*	*
!LO:LB:g=original	!	!	!	!	!	!	!
2FF/	pro-	2c\	eſt	2.c/	Pro-	0a	eſt
2.FF/	-phe-	1A/	per	.	.	.	.
.	.	.	.	4B/	.	.	.
=167-	=167-	=167-	=167-	=167-	=167-	=167-	=167-
.	.	.	.	4A/	.	.	.
4GG/	.	.	.	4G/	.	.	.
4AA/	.	2A/	pro-	2F/	-phe-	.	.
4BB/	.	.	.	.	.	.	.
2C/	.	2G/	-phe-	2E/	-tas	2g\	per
*	*	*	*	*	*Xij	*	*
2D/	.	1d\	.	2A/	per	2f\	pro-
=168-	=168-	=168-	=168-	=168-	=168-	=168-	=168-
0E	.	.	.	2G#X/	.	0e	-phe-
.	.	2c\	.	2A/	Pro-	.	.
.	.	1B	.	1B	-phe-	.	.
=169-	=169-	=169-	=169-	=169-	=169-	=169-	=169-
2AA/	-tas	1A	-tas	2c#X/	-tas	2e/	-tas
*	*	*	*	*	*	*	*Xij
2AA/	et	.	.	2e\	Et	2a\	Et
*	*	*	*	*	*	*custos:g	*
2E\	v-	2r	.	2B/	u-	2a\	v-
!	!	!	!	!	!	!LO:LB:g=original	!
2E\	-nam	2B\	Et	2e\	-nam	2g#X\	-nam
=170-	=170-	=170-	=170-	=170-	=170-	=170-	=170-
*	*	*	*	*custos:d	*	*	*
1AA	ſan-	2e\	v-	1c#X	ſan-	1a	ſan-
.	.	2e\	-nam	.	.	.	.
!	!	!	!	!LO:LB:g=original	!	!	!
1.D	-ctam	1A	ſan-	1d	-ctam	2a\	-ctam
.	.	.	.	.	.	2gny\	Ca-
=171-	=171-	=171-	=171-	=171-	=171-	=171-	=171-
.	.	1.d	-ctam	1A	Ca-	2f\	-tho-
2C/	Ca-	.	.	.	.	2e/	-li-
2BB-X/	-tho-	.	.	2B-X/	-tho-	1d	-cam
2GG/	-li-	2d\	Ca-	2B-/	-li-	.	.
=172-	=172-	=172-	=172-	=172-	=172-	=172-	=172-
2AA/	-cam	2d\	-tho-	2A/	-cam	2a\	et
*	*	*custos:d	*	*	*	*	*
2AA/	et	2c#X\	-li-	2e\	et	1a	A-
!	!	!LO:LB:g=original	!	!	!	!	!
2D/	A-	2.d\	-cam	2f\	A-	.	.
2D/	-po-	.	.	2f\	-po-	2a\	-po-
.	.	4cny\	et	.	.	.	.
=173-	=173-	=173-	=173-	=173-	=173-	=173-	=173-
2E\	-ſto-	2B\	A-	2e\	-ſto-	2g#X\	-ſto-
*custos:BB	*	*	*	*	*	*	*
2AA/	-li-	2c\	-po-	2cny/	-li-	2a\	-li-
!LO:LB:g=original	!	!	!	!	!	!	!
2BB-X/	-cam	2d\	-ſto-	2f\	-cam	2d/	-cam
2GG/	Ec-	2B-X\	-li-	2g\	Ec-	2d/	Ec-
=174-	=174-	=174-	=174-	=174-	=174-	=174-	=174-
2.BB-X/	-cle-	2B-y\	-cam	1d	-cle-	1.d	-cle-
.	.	2G/	Ec-	.	.	.	.
4C/	.	.	.	.	.	.	.
2D/	.	2G/	-cle-	2.A/	.	.	.
2D/	-ſi-	2F#X/	-ſi-	.	.	2d/	-ſi-
.	.	.	.	4A/	-ſi-	.	.
=175-	=175-	=175-	=175-	=175-	=175-	=175-	=175-
2GG/	-am	1G	-am	2Bny/	-am	2d/	-am
2G\	Con-	.	.	2B/	Con-	2d/	Con-
4.G\	-fi-	1D	Con-	2A/	-fi-	4d/	-fi-
.	.	.	.	.	.	4d/	-te-
8G\	-te-	.	.	.	.	.	.
*	*	*	*	*	*	*custos:B	*
2F#X\	-or	.	.	4.A/	-te-	2d/	-or
.	.	.	.	8A/	-or	.	.
!	!	!	!	!	!	!LO:LB:g=original	!
=176-	=176-	=176-	=176-	=176-	=176-	=176-	=176-
2G\	v-	1E	-fi-	2B/	v-	2B/	v-
1GG	-num	.	.	2Gny/	-num	2e\	-num
*	*ij	*	*	*	*ij	*	*ij
.	.	1G	-te-	1B	Con-	1d	Con-
2D/	Con-	.	.	.	.	.	.
=177-	=177-	=177-	=177-	=177-	=177-	=177-	=177-
4.D/	-fi-	2A/	-or	2e\	-fi-	2.a\	-fi-
8D/	-te-	.	.	.	.	.	.
2C#X/	-or	2A/	v-	4e\	-te-	.	.
*	*	*	*	*custos:d	*	*	*
.	.	.	.	4e\	-or	4a\	-te-
!	!	!	!	!LO:LB:g=original	!	!	!
1D	v-	2D/	-num	1d	v-	2f\	-or
.	.	2E/	ba-	.	.	2gny\	v-
=178-	=178-	=178-	=178-	=178-	=178-	=178-	=178-
2D/	-num	1Fny	-pti-	2d\	-num	2a\	-num
*	*Xij	*	*	*	*Xij	*	*Xij
*custos:C	*	*	*	*	*	*	*
2D/	ba-	.	.	2A/	ba-	2f\	ba-
!LO:LB:g=original	!	!	!	!	!	!	!
0Cny	-pti-	1E	-ſma	0c	-pti-	4g\	-pti-
.	.	.	.	.	.	4f\	.
.	.	.	.	.	.	4e/	.
.	.	.	.	.	.	4d/	.
=179-	=179-	=179-	=179-	=179-	=179-	=179-	=179-
.	.	1G	in	.	.	1e	.
*	*	*custos:A	*	*	*	*	*
2FF/	-ſma	2A/	re-	2c/	-ſma	2f\	-ſma
!	!	!LO:LB:g=original	!	!	!	!	!
4FF/	in	4A/	-mi-	4c/	in	4f\	in
4FF/	re-	4A/	-ſsi-	4c/	re-	4f\	re-
=180-	=180-	=180-	=180-	=180-	=180-	=180-	=180-
2FF/	-mi-	1A	-o-	2c/	-mi-	2f\	-mi-
2Fny\	-ſsi-	.	.	2c/	-ſsi-	2f\	-ſsi-
1C	-o-	1G	-nem	1c	-o-	1e	-o-
=181-	=181-	=181-	=181-	=181-	=181-	=181-	=181-
1C	-nem	1c	pec-	1c	-nem	1g	-nem
2BBny/	pec-	1G	-ca-	2d\	pec-	2g\	pec-
2GG/	-ca-	.	.	2d\	-ca-	2b\	-ca-
=182-	=182-	=182-	=182-	=182-	=182-	=182-	=182-
1D	-to-	1F	-to-	1d	-to-	1a	-to-
!	!	!	!	!	!	!LO:PB:g=original	!
1AA	-rum	1E	-rum	1c	-rum	1a	-rum
=183-	=183-	=183-	=183-	=183-	=183-	=183-	=183-
*	*	*	*	*	*ij	*	*
2D/	pec-	2D/	et	2.f\	pec-	2.a\	pec-
2C/	-ca-	2E/	ex-	.	.	.	.
.	.	.	.	4e\	-ca-	4a\	-ca-
1D	-to-	1F	-pe-	1d	-to-	1a	-to-
=184-	=184-	=184-	=184-	=184-	=184-	=184-	=184-
1AA	-rum	1E	-cto	1c	-rum	1a	-rum
*	*	*	*	*	*Xij	*	*
4GG/	et	1Bny	re-	4B/	Et	4d/	et
4G\	ex-	.	.	4d\	ex-	4d/	ex-
2G\	-pe-	.	.	2d/	-pe-	2g\	-pe-
=185-	=185-	=185-	=185-	=185-	=185-	=185-	=185-
*	*	*	*	*custos:B	*	*	*
1GG	-cto	1B	-ſur-	1d	-cto	1g	-cto
*	*ij	*	*	*	*ij	*	*ij
!	!	!	!	!LO:PB:g=original	!	!	!
4G\	et	2.G/	-re-	4B/	Et	4d/	et
4G\	ex-	.	.	4B/	ex-	4d/	ex-
*custos:GG	*	*	*	*	*	*	*
2G\	-pe-	.	.	2B/	-pe-	2d/	-pe-
.	.	4G/	-cti-	.	.	.	.
!LO:LB:g=original	!	!	!	!	!	!	!
=186-	=186-	=186-	=186-	=186-	=186-	=186-	=186-
2GG,</	-cto	2B\	-o-	2d\	-cto	2g\	-cto
*	*Xij	*	*	*	*Xij	*	*Xij
4GG/	re-	2B\	-nem	4d\	re-	4d/	re-
4AA/	-ſur-	.	.	4c/	-ſur-	4d/	-ſur-
4BB/	-re-	2d\	mor-	4B/	-re-	4d/	-re-
4C/	-cti-	.	.	4A/	-cti-	4e/	-cti-
4D/	-o-	2B\	-tu-	4B/	-o-	4f\	-o-
4E\	-nem	.	.	4G/	-nem	4e/	-nem
=187-	=187-	=187-	=187-	=187-	=187-	=187-	=187-
4C/	mor-	2c\	-o-	4G/	mor-	4e/	mor-
4AA/	-tu-	.	.	4G/	-tu-	4e/	-tu-
*	*	*custos:B	*	*	*	*	*
2D/	-o-	2A/	.	2F#X/	-o-	2d/	-o-
!	!	!LO:LB:g=original	!	!	!	!	!
1GG	-rum	1B	-rum	1G	-rum	1d	-rum
=188-	=188-	=188-	=188-	=188-	=188-	=188-	=188-
0C	Et	1e	Et	1r	.	1r	.
.	.	2e\	vi-	1c	Et	1g	Et
.	.	4e\	-tam	.	.	.	.
.	.	4e\	ven-	.	.	.	.
=189-	=189-	=189-	=189-	=189-	=189-	=189-	=189-
*	*	*	*	*	*	*custos:g	*
2G\	vi-	1B	-tu-	2d\	vi-	2g\	vi-
!	!	!	!	!	!	!LO:LB:g=original	!
4G\	-tam	.	.	4d\	-tam	4g\	-tam
4G\	ven-	.	.	4d\	ven-	4g\	ven-
2E\	-tu-	1e	-ri	2c/	-tu-	2g\	-tu-
2C/	-ri	.	.	2G/	-ri	2e/	-ri
=190-	=190-	=190-	=190-	=190-	=190-	=190-	=190-
2.G\	ſe-	1d	Sae-	2.B/	Sae-	2.g\	Sae-
4G\	-cu-	.	.	4B/	-cu-	4g\	-cu-
1C	-li	1c	-cu-	1c	-li	1e	-li
=191-	=191-	=191-	=191-	=191-	=191-	=191-	=191-
*	*	*	*	*	*ij	*	*ij
1GG	et	1B	-li	1d	Et	1g	Et
*	*	*	*	*custos:d	*	*	*
2G\	vi-	1B	a-	2d\	vi-	2g\	vi-
!	!	!	!	!LO:LB:g=original	!	!	!
4G\	-tam	.	.	4d\	-tam	4g\	-tam
*custos:D	*	*	*	*	*	*	*
4G\	ven-	.	.	4d\	ven-	4g\	ven-
!LO:PB:g=original	!	!	!	!	!	!	!
=192-	=192-	=192-	=192-	=192-	=192-	=192-	=192-
2D/	-tu-	1d	-men	2f\	-tu-	2a\	-tu-
2F#X\	-ri	.	.	2d\	-ri	2a\	-ri
2.G\	ſae-	2d\	a-	2B/	Sae-	2.g\	Sae-
.	.	2B\	.	2d\	-cu-	.	.
4G\	-cu-	.	.	.	.	4g\	-cu-
=193-	=193-	=193-	=193-	=193-	=193-	=193-	=193-
2C/	-li	2c\	.	2e\	-li	2g\	-li
2D/	a-	2A/	.	2d\	Et	2f\	Et
2GG/	-men	1G	.	2B/	vi-	2d/	vi-
2BB/	Et	.	.	2B/	-tam	2d/	-tam
=194-	=194-	=194-	=194-	=194-	=194-	=194-	=194-
2D/	vi-	1F	-men	2A/	ven-	2d/	ven-
4D/	-tam	.	.	4A/	-tu-	4d/	-tu-
4D/	ven-	.	.	4A/	-ri	4d/	-ri
*	*	*	*ij	*	*	*	*
2AA/	-tu-	1E	a-	2A/	Sae-	2c/	Sae-
*	*	*	*	*	*	*custos:d	*
2C/	-ri	.	.	2G/	-cu-	2c/	-cu-
!	!	!	!	!	!	!LO:LB:g=original	!
=195-	=195-	=195-	=195-	=195-	=195-	=195-	=195-
2Fny\	ſe-	2D/	.	2A/	-li	2d/	-li
*	*	*	*	*	*Xij	*	*Xij
2E\	-cu-	2E/	.	4B/	a-	2g\	a-
.	.	.	.	4c/	.	.	.
2D/	-li	1F	.	2d\	.	2f\	.
2D/	a-	.	.	2A/	-men	2d/	.
=196-	=196-	=196-	=196-	=196-	=196-	=196-	=196-
2AA/	-men	[0El;;	-men	1c#X	.	1.e	-men
2.E\	a-	.	.	.	.	.	.
*	*	*	*Xij	*	*ij	*	*
.	.	.	.	1.e	a-	.	.
*custos:C	*	*	*	*	*	*	*
4D/	.	.	.	.	.	.	.
!LO:LB:g=original	!	!	!	!	!	!	!
4C/	.	.	.	.	.	2.e/	a-
4BB/	.	.	.	.	.	.	.
=197-	=197-	=197-	=197-	=197-	=197-	=197-	=197-
1AA	.	0E_	.	.	.	.	.
.	.	.	.	.	.	4d/	.
*	*	*	*	*custos:e	*	*	*
.	.	.	.	2e\	-men	2c/	.
!	!	!	!	!LO:LB:g=original	!	!	!
1GG#X	-men	.	.	2.e\	a-	1B	-men
.	.	.	.	4d\	.	.	.
=198-	=198-	=198-	=198-	=198-	=198-	=198-	=198-
*	*ij	*	*	*	*	*	*ij
0AA	a-	0E_	.	4cny/	.	2.e/	a-
.	.	.	.	4B/	.	.	.
.	.	.	.	2A/	-men	.	.
.	.	.	.	.	.	4d/	.
.	.	.	.	4e\	a-	4c/	.
.	.	.	.	4d\	.	4B/	.
.	.	.	.	4c/	.	2A/	-men
.	.	.	.	4B/	.	.	.
=199-	=199-	=199-	=199-	=199-	=199-	=199-	=199-
1AA	.	0E_	.	2.c/	.	1.a	a-
.	.	.	.	4B/	.	.	.
[1El;<	-men	.	.	[1Bl;;	-men	.	.
.	.	.	.	.	.	2g#X\	.
=200-	=200-	=200-	=200-	=200-	=200-	=200-	=200-
0E]	.	0E]	.	0B]	.	0g#yl;;	-men
*	*Xij	*	*	*	*	*	*Xij
==	==	==	==	==	==	==	==
*-	*-	*-	*-	*-	*-	*-	*-
!!!system-decoration: [(*)]
!!!RDF**kern: < = below
!!!RDF**kern: l = terminal long
!!!ENC: Arkadiusz Malec
!!!END: 2022-01-28
!!!ENC: Andrzej Kubiczek
!!!END: 2022-01-30
!!!YEC: Copyright 2022 Narodowy Instytut Fryderyka Chopina (https://polishscores.org)
!!!YEM: Licence CC BY 4.0 (https://creativecommons.org/licenses/by/4.0)
